X: 42816
T: Whole Thing, The
R: reel
M: 4/4
K: Bminor
B,FFF EDCD|B,DFB AFEF|dFFF dFcF|FFBF EDCD|
B,FFF EDCD|B,DFB AFEF|dFFF dFcF|1 FFEC B,3 A,:|2 FFEC B,3 c||
|:dFFF dFcF|FFBd cAec|BfdB ecAc|BFBd cAec|
[1 dFFF fFeF|FFBd cAec|dfff edce|decd B3 c:|
[2 dBBB ecAc|BGGG ABce|dFFF dFcF|FFEC B,3 z||

